X:1
T:Que todos sepasan
T:Anonymous
T:Source : Cancionero de Uppsala : Villancicos---Venetia---G.Scotto---1556. Editor : André Vierendeels (07/04/17). 
T:Notes : Original clefs : C3, C3 Original note values have been halved Square brackets indicate ligatures
T:Que todos sepasan
T:©
T:©
C:Anonymous
Z:©
%%score [ 1 2 ]
L:1/8
Q:1/4=120
M:4/4
K:C
V:1 treble-8 nm="Tenor 1" snm="T 1"
V:2 treble-8 nm="Tenor 2" snm="T 2"
V:1
 z8 | z8 | z2 G2 c4 | c2 c2 c4 | d2 d2 e2 cd | ef e3 d c2- | c2 B2 c2 AB | cd e2 cd ef | %8
w: ||Que to-|dos se- pa-|san en flo- res _||* * * mis _|_ _ _ a- * mo- *|
w: ||Der- ri-|bo- las u-|ron ol- vi- do _|y _ dis- fa- vo-|* * res, y _|_ _ _ _ _ _ _|
 g3 e f2 g2 | c4 d4 | c8 | z2 e2 g4 | g2 g2 a4 | g3 e f2 g2 | c4 d4 | c4 z4 | A2 c4 B2 | %17
w: res, a- mo- *||res,|que to-|dos se- pa-|san _ _ en|flo- *|res,|que to- *|
w: dis- fa- vo- *||res,|||||||
 G2 z2 g3 d | e2 c2 d2 G2 | A2 c4 B2 | c8 || g4 g4 | a4 g4 | f2 e2 d2 g2 | f2 e2 d4 | c8 |] %26
w: dos, se- pa-|san en flo- *||res.|Las flo-|res que|a- ma- çi- *||do.|
w: ||||Del tiem-|po que-|os he ser- vi-||do.|
V:2
 z2 G2 c4 | c2 c2 c4 | d2 d2 e2 cd | ef e3 d c2- | c2 B2 c4 | z2 c4 c2 | d3 c ABcd | e2 cd ef g2 | %8
w: Que to-|dos se- pa-|san en flo- * *||* * res|mis a-|mo- * * * * *|* * * * * res,|
w: Der- ri-|bo las u-|ron ol- vi- do _|y _ dis- fa- vo-|* * res|y dis-|fa- * vo- * * *|* * * * * res,|
 z2 G2 A2 G2 | A2 c4 B2 | c4 z2 A2 | c4 B2 G2 | z2 g3 e f2 | e2 c2 d2 G2 | A2 c4 B2 | c8 | %16
w: mis a- mo-||res, que|to- * dos|se- pa- san|en flo- * *||res,|
w: y dis- fa-|vo- * *|res, *||||||
 z2 e2 g4 | g2 g2 a4 | g3 e f2 g2 | c4 d4 | c8 || e4 e4 | f6 e2 | d2 c3 c B2 | AG c4 B2 | c8 |] %26
w: que to-|dos se- pa-|san _ _ en|flo- *|res.|Las flo-|res que|a- * ma- çi-||do.|
w: |||||Del tiem-|po que-|os he ser- vi-||do.|

